src/new/technology-icons/settings.svg

<svg viewBox="0 0 54 54">
  <rect width="52" height="52" fill="white" />
  <rect x="1.875" y="1.875" width="50.25" height="50.25" rx="12.125" fill="white" stroke="#E0E0E0" strokeWidth="1.75" />
  <path
    d="M33.7675 28.7605H31.1512C31.0098 28.3306 30.8389 27.911 30.6396 27.5047L32.5 25.6442C32.6188 25.5247 32.6919 25.3674 32.7068 25.1996C32.7217 25.0318 32.6773 24.8641 32.5814 24.7256C31.7081 23.4505 30.6038 22.3502 29.3256 21.4814C29.1861 21.3824 29.0159 21.3362 28.8455 21.3511C28.6751 21.3661 28.5156 21.4411 28.3954 21.5628L26.5465 23.4116C26.1339 23.1988 25.7065 23.0162 25.2675 22.8651V20.2372C25.2702 20.0693 25.2133 19.9059 25.1068 19.776C25.0004 19.6461 24.8513 19.5582 24.6861 19.5279C23.1734 19.2308 21.6173 19.2308 20.1047 19.5279C19.9374 19.5604 19.7867 19.6501 19.6785 19.7817C19.5702 19.9133 19.5112 20.0785 19.5116 20.2489V22.8535C19.054 23.0005 18.6072 23.1792 18.1744 23.3884L16.314 21.5279C16.1945 21.4092 16.0372 21.336 15.8694 21.3211C15.7016 21.3063 15.5339 21.3506 15.3954 21.4465C14.136 22.3129 13.0479 23.4049 12.1861 24.6675C12.0871 24.807 12.0409 24.9771 12.0558 25.1475C12.0707 25.3179 12.1457 25.4775 12.2674 25.5977L14.1163 27.4465C13.8908 27.8803 13.7003 28.3313 13.5465 28.7954H10.9302C10.7604 28.7971 10.5964 28.8569 10.4652 28.9648C10.3341 29.0727 10.2438 29.2221 10.2093 29.3884C9.93023 30.9028 9.93023 32.4554 10.2093 33.9698C10.2438 34.1361 10.3341 34.2855 10.4652 34.3934C10.5964 34.5013 10.7604 34.561 10.9302 34.5628H13.5465C13.7003 35.0269 13.8908 35.4779 14.1163 35.9117L12.2674 37.7256C12.1457 37.8458 12.0707 38.0054 12.0558 38.1758C12.0409 38.3462 12.0871 38.5163 12.1861 38.6558C13.052 39.9267 14.1532 41.02 15.4302 41.8768C15.5687 41.9727 15.7365 42.017 15.9043 42.0022C16.0721 41.9873 16.2294 41.9141 16.3488 41.7954L18.2093 39.9349C18.6421 40.1441 19.0889 40.3228 19.5465 40.4698V43.0745C19.5461 43.2448 19.6051 43.41 19.7133 43.5416C19.8216 43.6732 19.9723 43.7629 20.1395 43.7954C20.8686 43.9273 21.608 43.9934 22.3489 43.9931C23.1298 43.9927 23.9088 43.9148 24.6744 43.7605C24.8396 43.7302 24.9887 43.6423 25.0952 43.5125C25.2017 43.3826 25.2586 43.2191 25.2558 43.0512V40.4233C25.6948 40.2722 26.1223 40.0896 26.5349 39.8768L28.3837 41.7256C28.5039 41.8473 28.6635 41.9224 28.8339 41.9373C29.0043 41.9522 29.1745 41.906 29.314 41.807C30.5911 40.9566 31.6991 39.8762 32.5814 38.621C32.6773 38.4825 32.7217 38.3147 32.7068 38.1469C32.6919 37.9791 32.6188 37.8218 32.5 37.7024L30.6396 35.8419C30.8389 35.4356 31.0098 35.016 31.1512 34.5861H33.7675C33.9373 34.5843 34.1013 34.5245 34.2325 34.4167C34.3636 34.3088 34.4539 34.1593 34.4884 33.993C34.7675 32.4787 34.7675 30.926 34.4884 29.4116C34.4662 29.2347 34.3812 29.0717 34.2488 28.9522C34.1165 28.8327 33.9457 28.7647 33.7675 28.7605ZM33.1512 33.0744H30.6047C30.4441 33.0749 30.2883 33.1288 30.1619 33.2278C30.0356 33.3268 29.9458 33.4652 29.907 33.621C29.7224 34.2958 29.4528 34.9444 29.1047 35.5512C29.0251 35.689 28.9933 35.8493 29.0144 36.007C29.0354 36.1648 29.108 36.3111 29.221 36.4233L31.0349 38.2372C30.4516 38.9931 29.7758 39.6728 29.0233 40.2605L27.221 38.4582C27.1066 38.3444 26.9574 38.2722 26.7972 38.2532C26.6369 38.2342 26.475 38.2696 26.3372 38.3535C25.7265 38.7161 25.0693 38.9938 24.3837 39.1791C24.2301 39.2201 24.0944 39.3108 23.9976 39.437C23.9009 39.5632 23.8486 39.7178 23.8489 39.8768V42.4349C22.904 42.5688 21.9449 42.5688 21 42.4349V39.9233C21.0002 39.7613 20.9466 39.6038 20.8477 39.4754C20.7489 39.3471 20.6102 39.2551 20.4535 39.214C19.7482 39.0381 19.071 38.7641 18.4419 38.4C18.3041 38.3204 18.1438 38.2887 17.986 38.3097C17.8283 38.3307 17.6819 38.4034 17.5698 38.5163L15.7558 40.3303C15 39.7469 14.3202 39.0711 13.7326 38.3186L15.5349 36.5163C15.6487 36.402 15.7209 36.2527 15.7398 36.0925C15.7588 35.9323 15.7235 35.7704 15.6395 35.6326C15.2623 35.0017 14.9765 34.3205 14.7907 33.6093C14.7497 33.4557 14.659 33.32 14.5328 33.2232C14.4067 33.1265 14.252 33.0742 14.093 33.0744H11.5465C11.407 32.1261 11.407 31.1624 11.5465 30.214H14.093C14.252 30.2142 14.4067 30.1619 14.5328 30.0652C14.659 29.9684 14.7497 29.8327 14.7907 29.6791C14.9765 28.9679 15.2623 28.2867 15.6395 27.6558C15.7235 27.5181 15.7588 27.3561 15.7398 27.1959C15.7209 27.0357 15.6487 26.8865 15.5349 26.7721L13.7326 24.9698C14.3202 24.2173 15 23.5415 15.7558 22.9582L17.5698 24.7721C17.6819 24.885 17.8283 24.9577 17.986 24.9787C18.1438 24.9997 18.3041 24.968 18.4419 24.8884C19.071 24.5243 19.7482 24.2503 20.4535 24.0744C20.6102 24.0333 20.7489 23.9413 20.8477 23.813C20.9466 23.6847 21.0002 23.5272 21 23.3651V20.8302C21.9449 20.6963 22.904 20.6963 23.8489 20.8302V23.3884C23.8486 23.5474 23.9009 23.702 23.9976 23.8282C24.0944 23.9544 24.2301 24.045 24.3837 24.0861C25.0693 24.2713 25.7265 24.5491 26.3372 24.9116C26.475 24.9956 26.6369 25.0309 26.7972 25.0119C26.9574 24.993 27.1066 24.9208 27.221 24.807L29.0233 23.0047C29.7758 23.5923 30.4516 24.2721 31.0349 25.0279L29.221 26.8419C29.108 26.954 29.0354 27.1004 29.0144 27.2581C28.9933 27.4159 29.0251 27.5762 29.1047 27.714C29.4528 28.3208 29.7224 28.9694 29.907 29.6442C29.9458 29.8 30.0356 29.9383 30.1619 30.0373C30.2883 30.1363 30.4441 30.1903 30.6047 30.1907H33.1512C33.2907 31.1391 33.2907 32.1028 33.1512 33.0512V33.0744Z"
    fill="#EE0000"
  />
  <path
    d="M22.3488 27.5975C21.5484 27.5975 20.7661 27.8349 20.1006 28.2795C19.4352 28.7241 18.9165 29.3561 18.6103 30.0955C18.304 30.8349 18.2239 31.6485 18.38 32.4335C18.5361 33.2184 18.9215 33.9395 19.4874 34.5054C20.0534 35.0713 20.7744 35.4567 21.5593 35.6128C22.3443 35.7689 23.1579 35.6888 23.8973 35.3825C24.6367 35.0763 25.2687 34.5576 25.7133 33.8922C26.158 33.2267 26.3953 32.4444 26.3953 31.644C26.3953 30.5708 25.9689 29.5416 25.2101 28.7827C24.4512 28.0239 23.422 27.5975 22.3488 27.5975ZM22.3488 34.2371C21.8359 34.2371 21.3346 34.085 20.9082 33.8001C20.4817 33.5151 20.1494 33.1102 19.9531 32.6364C19.7569 32.1625 19.7055 31.6412 19.8056 31.1382C19.9056 30.6352 20.1526 30.1731 20.5152 29.8105C20.8779 29.4479 21.3399 29.2009 21.8429 29.1008C22.3459 29.0008 22.8673 29.0521 23.3411 29.2484C23.8149 29.4447 24.2199 29.777 24.5048 30.2034C24.7897 30.6299 24.9418 31.1312 24.9418 31.644C24.9418 32.3318 24.6686 32.9913 24.1823 33.4776C23.696 33.9639 23.0365 34.2371 22.3488 34.2371Z"
    fill="#EE0000"
  />
  <path
    d="M43.8257 18.1558C43.7958 17.9894 43.7083 17.839 43.5787 17.7306C43.449 17.6222 43.2854 17.5628 43.1164 17.5627H41.1164C41.0211 17.2809 40.9085 17.0051 40.7792 16.7371L42.1978 15.3651C42.3164 15.2459 42.3903 15.0895 42.4073 14.9222C42.4242 14.755 42.3831 14.587 42.2909 14.4464C41.591 13.3981 40.7041 12.4876 39.6746 11.7604C39.5343 11.6636 39.3646 11.6188 39.1948 11.6337C39.025 11.6485 38.8657 11.7221 38.7443 11.8418L37.3374 13.2488C37.0618 13.1119 36.7784 12.9915 36.4885 12.8883V10.8883C36.4908 10.7187 36.4323 10.5539 36.3235 10.4238C36.2147 10.2936 36.0628 10.2068 35.8955 10.179C34.6706 9.94033 33.4111 9.94033 32.1862 10.179C32.0189 10.2068 31.867 10.2936 31.7582 10.4238C31.6494 10.5539 31.5909 10.7187 31.5932 10.8883V12.8534C31.2855 12.9493 30.9861 13.0699 30.6978 13.2139L29.3257 11.7953C29.2065 11.6767 29.0502 11.6028 28.8829 11.5858C28.7157 11.5689 28.5477 11.61 28.4071 11.7023C27.3588 12.4021 26.4482 13.289 25.7211 14.3185C25.6243 14.4588 25.5795 14.6285 25.5943 14.7983C25.6092 14.9681 25.6828 15.1274 25.8025 15.2488L27.2094 16.6557C26.9862 17.1238 26.8034 17.6101 26.6629 18.1092C26.6169 18.2957 26.6459 18.4929 26.7438 18.6581C26.8416 18.8234 27.0005 18.9437 27.1862 18.993C27.2778 19.0175 27.3734 19.0238 27.4674 19.0114C27.5615 18.999 27.6521 18.9681 27.7342 18.9206C27.8163 18.873 27.8883 18.8098 27.9459 18.7344C28.0035 18.659 28.0456 18.573 28.0699 18.4813C28.218 17.9266 28.441 17.3945 28.7327 16.8999C28.8167 16.7622 28.852 16.6002 28.833 16.44C28.814 16.2798 28.7419 16.1306 28.628 16.0162L27.2792 14.6674C27.6954 14.1445 28.1716 13.6723 28.6978 13.2604L30.0467 14.6209C30.1607 14.7347 30.309 14.8079 30.4688 14.8289C30.6286 14.8499 30.7908 14.8177 30.9304 14.7371C31.4154 14.4483 31.9404 14.2327 32.4885 14.0976C32.6455 14.0592 32.7853 13.9699 32.8863 13.8437C32.9872 13.7175 33.0436 13.5615 33.0467 13.3999V11.493C33.707 11.4117 34.3747 11.4117 35.035 11.493V13.4232C35.0342 13.5837 35.086 13.74 35.1827 13.8682C35.2793 13.9963 35.4154 14.0892 35.5699 14.1325C36.1045 14.275 36.6171 14.4902 37.0932 14.772C37.2309 14.856 37.3929 14.8913 37.5531 14.8723C37.7133 14.8534 37.8625 14.7812 37.9769 14.6674L39.3257 13.3185C39.8486 13.7348 40.3208 14.2109 40.7327 14.7371L39.3722 16.086C39.2584 16.2 39.1853 16.3484 39.1642 16.5081C39.1432 16.6679 39.1755 16.8301 39.256 16.9697C39.5355 17.4414 39.7469 17.9504 39.8839 18.4813C39.9249 18.6349 40.0156 18.7707 40.1417 18.8674C40.2679 18.9642 40.4226 19.0165 40.5815 19.0162H42.4885C42.5816 19.6796 42.5816 20.3528 42.4885 21.0162H40.5815C40.4226 21.016 40.2679 21.0683 40.1417 21.165C40.0156 21.2618 39.9249 21.3975 39.8839 21.5511C39.7469 22.0821 39.5355 22.591 39.256 23.0627C39.1755 23.2023 39.1432 23.3646 39.1642 23.5243C39.1853 23.6841 39.2584 23.8324 39.3722 23.9465L40.7327 25.2953C40.3208 25.8215 39.8486 26.2977 39.3257 26.7139L37.9769 25.3651C37.8625 25.2512 37.7133 25.1791 37.5531 25.1601C37.3929 25.1411 37.2309 25.1765 37.0932 25.2604C36.6171 25.5423 36.1045 25.7575 35.5699 25.8999C35.3996 25.9645 35.2595 26.0902 35.1768 26.2524C35.0941 26.4147 35.0749 26.602 35.1228 26.7777C35.1707 26.9534 35.2824 27.105 35.436 27.2028C35.5896 27.3007 35.7741 27.3378 35.9536 27.3069C36.4313 27.1794 36.8949 27.0041 37.3374 26.7837L38.7443 28.1558C38.8117 28.2226 38.8915 28.2755 38.9793 28.3114C39.0671 28.3473 39.1611 28.3655 39.256 28.3651C39.4047 28.362 39.5496 28.3178 39.6746 28.2372C40.7 27.5238 41.5866 26.6293 42.2909 25.5976C42.3831 25.4571 42.4242 25.2891 42.4073 25.1218C42.3903 24.9546 42.3164 24.7982 42.1978 24.679L40.7792 23.2604C40.9085 22.9924 41.0211 22.7167 41.1164 22.4348H43.1164C43.2854 22.4348 43.449 22.3754 43.5787 22.267C43.7083 22.1586 43.7958 22.0081 43.8257 21.8418C44.0583 20.6124 44.0583 19.3503 43.8257 18.1209V18.1558Z"
    fill="black"
  />
  <path
    d="M33.9767 21.9465C33.7998 21.969 33.6372 22.0551 33.5193 22.1889C33.4013 22.3227 33.3363 22.4949 33.3363 22.6733C33.3363 22.8516 33.4013 23.0238 33.5193 23.1576C33.6372 23.2914 33.7998 23.3776 33.9767 23.4C34.646 23.4 35.3002 23.2016 35.8566 22.8298C36.4131 22.4579 36.8468 21.9295 37.1029 21.3112C37.359 20.6929 37.426 20.0125 37.2954 19.3562C37.1649 18.6998 36.8426 18.0969 36.3694 17.6236C35.8962 17.1504 35.2933 16.8281 34.6369 16.6976C33.9805 16.567 33.3001 16.634 32.6818 16.8901C32.0636 17.1462 31.5351 17.5799 31.1633 18.1364C30.7915 18.6928 30.593 19.3471 30.593 20.0163C30.6154 20.1932 30.7016 20.3559 30.8354 20.4738C30.9692 20.5917 31.1414 20.6567 31.3198 20.6567C31.4981 20.6567 31.6703 20.5917 31.8041 20.4738C31.9379 20.3559 32.0241 20.1932 32.0465 20.0163C32.0465 19.6345 32.1597 19.2613 32.3718 18.9439C32.5839 18.6265 32.8854 18.3791 33.2381 18.233C33.5908 18.0869 33.9789 18.0487 34.3533 18.1231C34.7277 18.1976 35.0717 18.3815 35.3416 18.6514C35.6116 18.9214 35.7954 19.2653 35.8699 19.6397C35.9444 20.0142 35.9061 20.4023 35.76 20.755C35.614 21.1077 35.3665 21.4091 35.0491 21.6212C34.7317 21.8333 34.3585 21.9465 33.9767 21.9465Z"
    fill="black"
  />
</svg>

<svg viewBox="0 0 54 54">
    <path fill="#fff" d="M0 0h52v52H0z"/>
    <rect width="50.25" height="50.25" x="1.875" y="1.875" fill="#fff" stroke="#e0e0e0" rx="12.125"/>
    <path fill="#e00" d="M33.768 28.76H31.15a10 10 0 0 0-.511-1.255l1.86-1.86a.72.72 0 0 0 .081-.92 12.4 12.4 0 0 0-3.255-3.244.72.72 0 0 0-.93.082l-1.85 1.849a10 10 0 0 0-1.279-.547v-2.628a.71.71 0 0 0-.58-.71 11.9 11.9 0 0 0-4.582 0 .73.73 0 0 0-.593.722v2.605q-.688.22-1.338.534l-1.86-1.86a.72.72 0 0 0-.919-.081 12.4 12.4 0 0 0-3.209 3.22.72.72 0 0 0 .081.93l1.85 1.85a9 9 0 0 0-.57 1.348H10.93a.744.744 0 0 0-.72.593 12.6 12.6 0 0 0 0 4.582.744.744 0 0 0 .72.593h2.617q.23.697.57 1.349l-1.85 1.814a.72.72 0 0 0-.08.93 12 12 0 0 0 3.243 3.22.72.72 0 0 0 .919-.08l1.86-1.861q.65.315 1.338.535v2.605a.73.73 0 0 0 .593.72q1.096.198 2.209.198c.78 0 1.56-.078 2.325-.233a.71.71 0 0 0 .582-.709v-2.628a10 10 0 0 0 1.279-.546l1.849 1.849a.72.72 0 0 0 .93.081 12.4 12.4 0 0 0 3.267-3.186.72.72 0 0 0-.081-.919l-1.86-1.86q.299-.61.511-1.256h2.616a.745.745 0 0 0 .721-.593c.28-1.514.28-3.067 0-4.581a.74.74 0 0 0-.72-.651m-.617 4.314h-2.546a.72.72 0 0 0-.698.547 8.3 8.3 0 0 1-.802 1.93.72.72 0 0 0 .116.872l1.814 1.814a11.4 11.4 0 0 1-2.012 2.023l-1.802-1.802a.72.72 0 0 0-.884-.105c-.61.363-1.268.64-1.953.826a.72.72 0 0 0-.535.698v2.558c-.945.134-1.904.134-2.849 0v-2.512a.73.73 0 0 0-.547-.709 7.8 7.8 0 0 1-2.011-.814.72.72 0 0 0-.872.116l-1.814 1.814a11.4 11.4 0 0 1-2.023-2.011l1.802-1.803a.72.72 0 0 0 .104-.883 7.8 7.8 0 0 1-.848-2.024.72.72 0 0 0-.698-.535h-2.546a9.8 9.8 0 0 1 0-2.86h2.546a.72.72 0 0 0 .698-.535 7.8 7.8 0 0 1 .848-2.023.72.72 0 0 0-.104-.884l-1.802-1.802a11.4 11.4 0 0 1 2.023-2.012l1.814 1.814a.72.72 0 0 0 .872.116 7.8 7.8 0 0 1 2.011-.814.73.73 0 0 0 .547-.709V20.83a10.2 10.2 0 0 1 2.849 0v2.558a.72.72 0 0 0 .535.698 7.8 7.8 0 0 1 1.953.826.72.72 0 0 0 .884-.105l1.802-1.802a11.4 11.4 0 0 1 2.012 2.023l-1.814 1.814a.72.72 0 0 0-.116.872c.348.607.617 1.255.802 1.93a.72.72 0 0 0 .698.547h2.546a9.8 9.8 0 0 1 0 2.86z"/>
    <path fill="#e00" d="M22.349 27.598a4.047 4.047 0 1 0 0 8.094 4.047 4.047 0 0 0 0-8.094m0 6.64a2.593 2.593 0 1 1 0-5.187 2.593 2.593 0 0 1 0 5.186"/>
    <path d="M43.826 18.156a.72.72 0 0 0-.71-.593h-2a7 7 0 0 0-.337-.826l1.419-1.372a.73.73 0 0 0 .093-.919 10.3 10.3 0 0 0-2.616-2.686.73.73 0 0 0-.93.082l-1.408 1.407a8 8 0 0 0-.849-.36v-2a.71.71 0 0 0-.593-.71 9.7 9.7 0 0 0-3.709 0 .71.71 0 0 0-.593.71v1.964a6 6 0 0 0-.895.36l-1.372-1.418a.73.73 0 0 0-.919-.093 10.3 10.3 0 0 0-2.686 2.617.73.73 0 0 0 .081.93l1.407 1.407a9 9 0 0 0-.546 1.453.733.733 0 0 0 1.071.812.72.72 0 0 0 .336-.44 6.3 6.3 0 0 1 .663-1.581.72.72 0 0 0-.105-.884l-1.349-1.349a8.6 8.6 0 0 1 1.419-1.407l1.349 1.36a.73.73 0 0 0 .883.117 5.7 5.7 0 0 1 1.559-.64.73.73 0 0 0 .558-.697v-1.907a8 8 0 0 1 1.988 0v1.93a.73.73 0 0 0 .535.71 6 6 0 0 1 1.523.639.72.72 0 0 0 .884-.105l1.349-1.348a8.5 8.5 0 0 1 1.407 1.418l-1.36 1.349a.734.734 0 0 0-.117.884c.28.471.49.98.628 1.511a.72.72 0 0 0 .697.535h1.907a7.2 7.2 0 0 1 0 2h-1.907a.72.72 0 0 0-.697.535 5.8 5.8 0 0 1-.628 1.512.73.73 0 0 0 .116.884l1.36 1.348a8.6 8.6 0 0 1-1.406 1.419l-1.35-1.349a.72.72 0 0 0-.883-.105 6 6 0 0 1-1.523.64.733.733 0 0 0 .384 1.407 7.4 7.4 0 0 0 1.383-.523l1.407 1.372a.72.72 0 0 0 .512.21.8.8 0 0 0 .419-.129 10.3 10.3 0 0 0 2.616-2.64.73.73 0 0 0-.093-.918l-1.419-1.419q.195-.402.337-.825h2a.72.72 0 0 0 .71-.593c.232-1.23.232-2.492 0-3.721z"/>
    <path d="M33.977 21.947a.733.733 0 0 0 0 1.453 3.383 3.383 0 1 0-3.384-3.384.732.732 0 0 0 1.454 0 1.93 1.93 0 1 1 1.93 1.93"/>
</svg>
